X: 8829
T: Cuil Aodha, The
R: jig
M: 6/8
K: Gmajor
|:g|gfd cAd|GAG B2c|dcB cAG|FED cBA|
~G3 GFG|A3 fga|gfd cAd|GAG G2:|
d|~g3 gfg|ade fga|gfd c2d|cAG FGA|
G2g gfg|ade fga|gfd cAd|GAG GBd|
gB/c/d gB/c/d|aB/c/d fga|gfd c2d|cAG FGA|
GB/c/d gfg|ade fga|gfd cAd|GAG G2||

